X:1
T:The Easy Winners
T:“THE EASY WINNERS”
T:A  RAG  TIME  TWO  STEP.
T:By SCOTT JOPLIN. Arr.: James Brigham 
T:Public Domain
T:Public Domain
T:Public Domain
T:Public Domain
C:Scott Joplin
Z:Public Domain
%%score { ( 1 3 5 ) | ( 2 4 ) }
L:1/8
Q:1/4=72
M:2/4
K:G
V:1 treble nm="Piano"
V:3 treble 
V:5 treble 
V:2 bass 
V:4 bass 
V:1
"^Not fast.""^Introduction." DB- B/A/G/F/ | E/DC/ B,A,/G,/ | (F,/G,/A,/B,/ C/D/E/F/ | G) z z2 |: %4
 [GB] [GB]2 [Bd] | (([^Ae]/[Bd]))(([Ae]/ [Bd]/))(([Ae]/[Bd])) | %6
 (([^da]/[eg]))(([da]/ [eg]/))(([da]/[eg]/))[B=d]/- | [Bd]4 | [GB] [GB]2 [Bd] | %9
 (([^Ae]/[Bd]))(([Ae]/ [Bd]/))[Bd]/[Bd] | d/Ad/ ^c/d/e | [Fd]2- [Fd]/D/F/=c/ | [GB] [GB]2 [Bd] | %13
 (([^Ae]/[Bd]))(([Ae]/ [Bd]/))(([Ae]/[Bd])) | (([^da]/[eg]))(([da]/ [eg]/))[eg]/[efa]/[^dfb]/- | %15
 [dfb-]2 bf/g/ | (([^da]/[eg]))(([da]/ [eg]/))(([da]/[eg]/))[B=d]/- | %17
 [Bd]/[ce]/[Bd]/[Ac]/ [GB]/[Bd][Bd]/ | (([^Gd]/[Ac]))(([Gd]/ [Ac]/))[CFB]/[CFA] |1 %19
 [B,G]2- [B,G] z :|2 [B,G]2 [GBdg]D/^D/ |: E/^E/F/[FA]/- [FA]/d/c/A/ | E/^E/F/[FB]/- [FB]/A/=E/F/ | %23
 G/D/E/F/ G/^G/A/^A/ | B/^A/B/[Be]/- [Be]/d/=A/B/ | c/aB/ c/aB/ | c/ag/ f/e/d/c/ | B/g^A/ B/gA/ | %28
 B/ge/ d/B/A/G/ | F/^^F/^G/[Ge]/- [Ge]/d/B/G/ | F/^^F/^G/[Ge]/- [Ge]/[Bd]/[Ge]/[Bd]/ | %31
 [Ac]/[^GB]/[Ac]/E/- E/^G/A/c/ | e/B/c/A/- A/E/C/A,/ | !1!^A,/!2!^C/!3!E/!4!G/ !5!^A/!5!A!1!A/- | %34
 A/!2!^c/!3!e/!4!g/ !5!^a z | b/g/d/B/ B/G/B,/D/ |1 [CDFA]/[CDFA][B,DG]/- [B,DG]D/^D/ :|2 %37
 [CDFA]/[CDFA][B,DG]/- [B,DG]D || [GB] [GB]2 [Bd] | (([^Ae]/[Bd]))(([Ae]/ [Bd]/))(([Ae]/[Bd])) | %40
 (([^da]/[eg]))(([da]/ [eg]/))(([da]/[eg]/))[B=d]/- | [Bd]4 | [GB] [GB]2 [Bd] | %43
 (([^Ae]/[Bd]))(([Ae]/ [Bd]/))[Bd]/[Bd] | d/Ad/ ^c/d/e | [Fd]2- [Fd]/D/F/=c/ | [GB] [GB]2 [Bd] | %47
 (([^Ae]/[Bd]))(([Ae]/ [Bd]/))(([Ae]/[Bd])) | (([^da]/[eg]))(([da]/ [eg]/))[eg]/[efa]/[^dfb]/- | %49
 b2- bf/g/ | (([^da]/[eg]))(([da]/ [eg]/))(([da]/[eg]/))[B=d]/- | %51
 [Bd]/[ce]/[Bd]/[Ac]/ [GB]/[Bd][Bd]/ | (([^Gd]/[Ac]))(([Gd]/ [Ac]/))[CFB]/[CFA] | %53
 [B,G]2 [GBdg] z ||[K:C] cc- c/G/c/d/ | ee- e/G/c/e/ | [Bfg]/[dfb][Bfa]/- [Bfa]/[Bfg]/[FGB] | %57
 [EGc] z z G/^G/ |:[K:C] A/fd/ ^G/fd/ | =G/c/e/a/- a/g/e/c/ | B/g/d/B/ A/BG/ | c/c/e/g/ c'/a/g/e/ | %62
 A/fd/ ^G/fd/ | =G/c/e/a/- a/g/e/c/ | d/e/d/c/ B/cA/ | G([^Ae]/[Bd]/) !^![Bg][G_B] | A/fd/ ^G/fd/ | %67
 z/ =G/c/e/ a/g/e/c/ | B/g/d/B/ A/BG/ | z/ c/e/g/ c'/a/g/e/ | A/fd/ ^G/fd/ | z/ =G/c/e/ a/g/e/G/ |1 %72
 ^F<[Ac] =F/[Bd]c/- | [Ec]e/c/ d/e/G/^G/ :|2 ^F<[Ac] =F/[Bd]c/- || [Ec]2- [Ec]/[Gg]/[Aa]/[^A^a]/ |: %76
 [Bfb][Gg]/[Afa]/- [Afa]2 | [Bfb][Gg]/[Afa]/- [Afa]/[Gg]/[Aa]/[Bb]/ | [cec'][Geg]/[Aea]/- [Aea]2 | %79
 [cec'][Geg]/[Aea]/- [Aea]2 | z a/[Bfg]/- [Bfg]2 | z a/[Bfg]/- [Bfg]2 | z a/[ceg]/- [ceg]2 | %83
 z a/[ceg]/- [ceg]/[Gg]/[Aa]/[^A^a]/ | [Bfb][Gg]/[Afa]/- [Afa]2 | %85
 [Bfb][Gg]/[Afa]/- [Afa]/[Gg]/[Aa]/[Bb]/ | [cec'][Geg]/[Aea]/- [Aea]2 | z/ c/e/g/ c'/a/g/e/ | %88
 A/fd/ ^G/fd/ | z/ =G/c/e/ a/g/e/G/ |1 ^F<[Ac] =F/[Bd]c/- | [Ec]2- [Ec]/[Gg]/[Aa]/[^A^a]/ :|2 %92
 ^F<[Ac] =F/[Bd]c/- || [Ec]2 [cegc'] z |] %94
V:2
 D,B,- B,/A,/G,/F,/ | E,/D,C,/ B,,A,,/G,,/ | D,,2 D,/C,/B,,/A,,/ | G,,[D,G,B,] D,,[D,G,B,] |: %4
 G,,[D,G,B,] D,,[D,G,B,] | G,,[D,G,B,] D,,[D,G,B,] | C,,[E,G,C] C,,[E,G,C] | %7
 G,,[D,G,B,] D,,[D,G,B,] | G,,[D,G,B,] D,,[D,G,B,] | G,,[D,G,B,] ^G,,[^E,^G,D] | %10
 A,,[F,A,D] A,,[A,^C] | [D,D][=C,=C] [B,,B,][A,,A,] | [G,,G,][D,G,B,] D,,[D,G,B,] | %13
 G,,[D,G,B,] D,,[D,G,B,] | C,,[E,G,C] [C,C][C,C] | [B,,B,][F,,F,] [B,,,B,,] z | %16
 [C,,C,][E,G,C] [C,,C,][E,G,C] | [G,,G,][D,G,B,] [G,,G,][D,G,B,] | [D,,D,][D,F,C] [D,,D,][D,,D,] |1 %19
 G,,D,, E,,F,, :|2 [G,,G,][D,,D,] [G,,,G,,] z |: [D,,D,][D,A,C] [F,,F,][D,F,C] | %22
 [A,,A,][D,F,A,C] [A,,A,][^A,,^A,] | [B,,B,][D,G,B,] [D,,D,][D,G,B,] | %24
 [G,,G,][D,G,B,] [D,,D,][D,G,B,] | [A,,A,][D,F,C] [D,,D,][D,F,C] | [A,,A,][D,F,C] [D,,D,][F,,F,] | %27
 [G,,G,][D,G,B,] [D,,D,][D,G,B,] | [G,,G,][D,G,B,] [D,,D,][D,G,B,] | %29
 [E,,E,][E,^G,D] [^G,,G,][E,G,D] | [B,,B,][E,^G,D] [E,,E,][E,G,D] | A,,[E,A,C] C,[E,A,C] | %32
 A,,[E,A,] [C,E,A,]2 | !5!^C,/!4!E,/!3!G,/!2!^A,/ !1!^C/!1!C!5!C/- | %34
 C/[I:staff -1]!4!E/!3!G/!2!^A/ !1!^c[I:staff +1] z |[I:staff -1] [Gd][I:staff +1] z z2 |1 %36
 [D,,D,][D,,D,] [G,,G,] z :|2 [D,,D,][D,,D,] [G,,G,] z || G,,[D,G,B,] D,,[D,G,B,] | %39
 G,,[D,G,B,] D,,[D,G,B,] | C,,[E,G,C] C,,[E,G,C] | G,,[D,G,B,] D,,[D,G,B,] | %42
 G,,[D,G,B,] D,,[D,G,B,] | G,,[D,G,B,] ^G,,[^E,^G,D] | A,,[F,A,D] A,,[A,^C] | %45
 [D,D][=C,=C] [B,,B,][A,,A,] | [G,,G,][D,G,B,] D,,[D,G,B,] | G,,[D,G,B,] D,,[D,G,B,] | %48
 C,,[E,G,C] [C,C][C,C] | [B,,B,][F,,F,] [B,,,B,,] z | [C,,C,][E,G,C] [C,,C,][E,G,C] | %51
 [G,,G,][D,G,B,] [G,,G,][D,G,B,] | [D,,D,][D,F,C] [D,,D,][D,,D,] | [G,,G,][D,,D,] [G,,,G,,] z || %54
[K:C] CC- C/G,/C/D/ |[I:staff -1] EE- E/G,/C/E/ | G2[I:staff +1] [G,,G,][G,,G,] | %57
 [C,,C,][C,,C,] [D,,D,][E,,E,] |:[K:C] [F,,F,][A,CF] [D,D][^D,^D] | [E,E][G,CE] [C,C][G,CE] | %60
 [G,,G,][G,B,F] [D,D][^D,^D] | [E,E][C,C] [G,,G,][E,,E,] | [F,,F,][A,CF] [D,D][^D,^D] | %63
 [E,E][G,CE] [C,C][G,CE] | [A,,A,][CD^F] [D,,D,][CDF] | [G,B,D](^C,/D,/) !^!G,,[E,C] | %66
 [F,,F,][A,CF] [D,D][^D,^D] | [E,E][G,CE] [C,C][G,CE] | [G,,G,][G,B,F] [D,D][^D,^D] | %69
 [E,E][C,C] [G,,G,][E,,E,] | [F,,F,][A,,A,] [D,D][F,F] | [E,E][C,C] [G,,G,][C,C] |1 %72
 [A,,A,][D,,D,] [G,,,G,,]2 | [C,,C,][C,C] [G,,G,][E,,E,] :|2 [A,,A,][D,,D,] [G,,,G,,]2 || %75
 [C,,C,]G,, C,, z |: [D,D][G,B,F] [G,,G,][G,B,F] | %77
 [D,,D,][G,B,F] [D,,D,]/[G,,G,]/[^F,,^F,]/[=F,,=F,]/ | [E,,E,][G,CE] [C,C][G,CE] | %79
 [G,,G,][G,CE] [C,C][^C,^C] | [D,D][G,B,F] [G,,G,][G,B,F] | [B,,B,][G,B,F] [G,,G,][G,B,F] | %82
 [C,C][G,CE] [G,,G,][G,CE] | [C,C][G,CE] [E,E][_E,_E] | [D,D][G,B,F] [G,,G,][G,B,F] | %85
 [D,,D,][G,B,F] [D,,D,]/[G,,G,]/[^F,,^F,]/[=F,,=F,]/ | [E,,E,][G,CE] [C,C][G,CE] | %87
 [E,E][C,C] [G,,G,][E,,E,] | [F,,F,][A,,A,] [D,D][F,F] | [E,E][C,C] [G,,G,][C,C] |1 %90
 [A,,A,][D,,D,] [G,,,G,,]2 | [C,,C,][G,,G,] [E,E][_E,_E] :|2 [A,,A,][D,,D,] [G,,,G,,]2 || %93
 [C,,C,]G,, C,, z |] %94
V:3
 x4 | x4 | x4 | x4 |: x4 | x4 | x4 | z (D/E/ F/G/A/^A/) | x4 | x4 | z/ F3/2 G G | x4 | x4 | x4 | %14
 x4 | z/ B/^d/f/ b z | x4 | x4 | x4 |1 x4 :|2 x4 |: x4 | x4 | x4 | x4 | x4 | x4 | x4 | x4 | x4 | %30
 x4 | x4 | x4 | x4 | x4 | x4 |1 x4 :|2 x4 || x4 | x4 | x4 | z (D/E/ F/G/A/^A/) | x4 | x4 | %44
 z/ F3/2 GG | x4 | x4 | x4 | x4 | [df]3 z | x4 | x4 | x4 | x4 ||[K:C] x4 | x4 | x4 | x4 |: %58
[K:C] x4 | x4 | x4 | x4 | x4 | x4 | x4 | x4 | A2 ^G2 | x4 | x4 | x2 e_B | A2 ^G2 | x4 |1 %72
 ^F2 =F>E- | x4 :|2 ^F2 =F>E- || x4 |: x4 | x4 | x4 | x4 | x4 | x4 | x4 | x4 | x4 | x4 | x4 | %87
 x2 e_B | A2 ^G2 | x4 |1 ^F2 =F>E- | x4 :|2 ^F2 =F>E- || x4 |] %94
V:4
 x4 | x4 | x4 | x4 |: x4 | x4 | x4 | x4 | x4 | x4 | x4 | x4 | x4 | x4 | x4 | x4 | x4 | x4 | x4 |1 %19
 D,2- D, z :|2 x4 |: x4 | x4 | x4 | x4 | x4 | x4 | x4 | x4 | x4 | x4 | x4 | x4 | x4 | x4 | x4 |1 %36
 x4 :|2 x4 || x4 | x4 | x4 | x4 | x4 | x4 | x4 | x4 | x4 | x4 | x4 | x4 | x4 | x4 | x4 | x4 || %54
[K:C] x4 | x4 | x4 | x4 |:[K:C] x4 | x4 | x4 | x4 | x4 | x4 | x4 | x4 | x4 | x4 | x4 | x4 | x4 | %71
 x4 |1 x4 | x4 :|2 x4 || x4 |: x4 | x4 | x4 | x4 | x4 | x4 | x4 | x4 | x4 | x4 | x4 | x4 | x4 | %89
 x4 |1 x4 | x4 :|2 x4 || x4 |] %94
V:5
 x4 | x4 | x4 | x4 |: x4 | x4 | x4 | x4 | x4 | x4 | x4 | x4 | x4 | x4 | x4 | x4 | x4 | x4 | x4 |1 %19
 x4 :|2 x4 |: x4 | x4 | x4 | x4 | x4 | x4 | x4 | x4 | x4 | x4 | x4 | x4 | x4 | x4 | x4 |1 x4 :|2 %37
 x4 || x4 | x4 | x4 | x4 | x4 | x4 | x4 | x4 | x4 | x4 | x4 | z/ (B/^d/f/ b) x | x4 | x4 | x4 | %53
 x4 ||[K:C] x4 | x4 | x4 | x4 |:[K:C] x4 | x4 | x4 | x4 | x4 | x4 | x4 | x4 | x4 | x4 | x4 | x4 | %70
 x4 | x4 |1 x4 | x4 :|2 x4 || x4 |: x4 | x4 | x4 | x4 | x4 | x4 | x4 | x4 | x4 | x4 | x4 | x4 | %88
 x4 | x4 |1 x4 | x4 :|2 x4 || x4 |] %94

